svgs/sharp-regular/square-p.svg

<svg xmlns="http://www.w3.org/2000/svg" viewBox="0 0 448 512"><!--! Font Awesome Pro 6.6.0 by @fontawesome - https://fontawesome.com License - https://fontawesome.com/license (Commercial License) Copyright 2024 Fonticons, Inc. --><path d="M48 80l0 352 352 0 0-352L48 80zM0 32l48 0 352 0 48 0 0 48 0 352 0 48-48 0L48 480 0 480l0-48L0 80 0 32zm152 96l92 0c50.8 0 92 41.2 92 92l0 24-3.2 0c-10.6 39.2-46.3 68-88.8 68l-68 0 0 48 0 24-48 0 0-24 0-72 0-136 0-24 24 0zm92 136c24.3 0 44-19.7 44-44s-19.7-44-44-44l-68 0 0 88 68 0z"/></svg>

<svg xmlns="http://www.w3.org/2000/svg" viewBox="0 0 448 512"><!--! Font Awesome Pro 6.4.2 by @fontawesome - https://fontawesome.com License - https://fontawesome.com/license (Commercial License) Copyright 2023 Fonticons, Inc. --><path d="M48 80V432H400V80H48zM0 32H48 400h48V80 432v48H400 48 0V432 80 32zm152 96h92c50.8 0 92 41.2 92 92s-41.2 92-92 92H176v48 24H128V360 288 152 128h24zm92 136c24.3 0 44-19.7 44-44s-19.7-44-44-44H176v88h68z"/></svg>
